X: 42376
T: Well Wynd, The
R: reel
M: 4/4
K: Amajor
|:cd|ecAc eAce|a2ga fedc|Bcde fefg|afec B2cd|
ecAc eAce|a2ga fedc|Bcde fgaf|edcB A2:|
|:dc|B2dB GBEG|ABcd ecAc|dcde fgaf|bagf e2fg|
a2ed cdec|f2BA GABG|ABcd efga|edcB A2:|

